packages/symbols/svgs/solid/link-solid.svg

<svg width="16" height="16" viewBox="0 0 16 16" fill="none" xmlns="http://www.w3.org/2000/svg">
<g clip-path="url(#clip0_219_1964)">
<path fill-rule="evenodd" clip-rule="evenodd" d="M5.30001 10.7L6.00001 11.4L7.40001 10L6.70001 9.3C5.70001 8.3 5.70001 6.7 6.70001 5.7L9.70001 2.7C10.7 1.7 12.3 1.7 13.3 2.7C14.3 3.7 14.3 5.3 13.3 6.3L12.6 7L14 8.4L14.7 7.7C16.5 5.9 16.5 3.1 14.7 1.3C13.8 0.5 12.7 0 11.5 0C10.3 0 9.20001 0.4 8.30001 1.3L5.30001 4.3C3.50001 6.1 3.50001 8.9 5.30001 10.7ZM1.30001 14.7C2.20001 15.5 3.30001 16 4.50001 16C5.70001 16 6.90001 15.5 7.70001 14.7L10.7 11.7C12.5 9.90001 12.5 7.10001 10.7 5.30001L10 4.60001L8.60001 6.00001L9.30001 6.70001C10.3 7.70001 10.3 9.30001 9.30001 10.3L6.30001 13.3C5.30001 14.3 3.70001 14.3 2.70001 13.3C1.70001 12.3 1.70001 10.7 2.70001 9.70001L3.40001 9.00001L2.00001 7.60001L1.30001 8.30001C-0.499988 10.1 -0.499988 12.9 1.30001 14.7Z" fill="black"/>
</g>
<defs>
<clipPath id="clip0_219_1964">
<rect width="16" height="16" fill="white"/>
</clipPath>
</defs>
</svg>

<svg width="16" height="16" viewBox="0 0 16 16" xmlns="http://www.w3.org/2000/svg"><g clip-path="url(#a)"><path fill-rule="evenodd" clip-rule="evenodd" d="m5.3 10.7.7.7L7.4 10l-.7-.7c-1-1-1-2.6 0-3.6l3-3c1-1 2.6-1 3.6 0s1 2.6 0 3.6l-.7.7L14 8.4l.7-.7c1.8-1.8 1.8-4.6 0-6.4-.9-.8-2-1.3-3.2-1.3-1.2 0-2.3.4-3.2 1.3l-3 3c-1.8 1.8-1.8 4.6 0 6.4Zm-4 4c.9.8 2 1.3 3.2 1.3 1.2 0 2.4-.5 3.2-1.3l3-3c1.8-1.8 1.8-4.6 0-6.4l-.7-.7L8.6 6l.7.7c1 1 1 2.6 0 3.6l-3 3c-1 1-2.6 1-3.6 0s-1-2.6 0-3.6l.7-.7L2 7.6l-.7.7c-1.8 1.8-1.8 4.6 0 6.4Z"/></g><defs><clipPath id="a"><path fill="#fff" d="M0 0h16v16H0z"/></clipPath></defs></svg>
